X:1
T:’Twill Be Glory By and By
T:’Twill Be Glory By and By
T:John B. Vaughan
T:John B. Vaughan, 1901
T:Public Domain Courtesy of the Cyber Hymnal™
T:Public Domain Courtesy of the Cyber Hymnal™
C:John B. Vaughan
Z:Public Domain
Z:Courtesy of the Cyber Hymnal™
%%score ( 1 2 ) ( 3 4 )
L:1/8
Q:1/4=95
M:4/4
K:F
V:1 treble 
V:2 treble 
V:3 bass 
V:4 bass 
V:1
 [CF][CG] | [FA]2 [EB][CG] [Gc]2 [CE][EG] | F6 [FA][GB] | [Ac]2 [Bd][Ac] [Af]2 [FA][FB] | %4
w: 1.~My Re-|deem- er has gone to pre-|pare (in the|sky) Bless- èd man- sions of|
w: 2.~I’ve no|trea- sures to bind me be-|low (here be-|low) In this land full of|
w: 3.~I shall|sing home at last by and|by (by and|by), And my voice will be|
 c6 [Ac][Ac] | [Af][Af][Af][Bd] [Ac]2 [FA][EG] | [DF][DF][DF][EG] [FA]2 [Ac][Ac] | %7
w: rest by and|by (by and by); Soon He’ll call|me home to rest With the ran-|
w: sor- row and|woe (here be- low); All my trea-|sures are a- bove In that land|
w: tuned to the|lyre (heav’n- ly lyre); Then my song|shall ev- er be, Home at rest|
 [Af]2 [Fc]>[FA] [EG]F[CG][EA] | F6 x4 ||"^Refrain" FG | A6 GA | F6 AG | c6 GA | F6 Ac | f6 df | %15
w: somed and the blest, For it all|will|be glo-|ry by and|by (by and|by). How I|long for that|rest In the|
w: of peace and love. Soon I’ll go|and|shall rest|for- ev- er-|more (ev- er-|more). * *|||
w: be- yond the sea, It will all|soon|be glo-|ry by and|by (by and|by). * *|||
 c6 [Bd][Bd] | [Ac]2 [FA]2 [EG][CF][EG][EA] | F6 |] %18
w: home of the|blest, ’Twill be sweet when we|meet|
w: |||
w: |||
V:2
 x2 | x8 | F2 DD C2 x2 | x8 | F2 GE F2 x2 | x8 | x8 | x5 F x2 | F2 DD C2 x4 || x2 | (F>FFF F2) x2 | %11
 (D>DDD D2) x2 | (E>EEF G2) x2 | (C>CCD C2) x2 | (A>AAB A2) x2 | (A>AAA A2) x2 | x8 | (F2 DD C2) |] %18
V:3
 [F,A,][F,B,] | [F,C]2 [G,C][E,C] [C,B,]2 [C,G,][C,B,] | A,6 [F,C][F,C] | %3
w: ~ ~|~ ~ ~ ~ ~ ~|~ ~ ~|
 [F,F]2 [F,F][F,F] [F,C]2 F,F, | [F,A,]2 [C,B,][C,G,] [F,A,]2 [F,F][F,F] | %5
w: ~ ~ ~ ~ ~ ~|~ ~ ~ ~ ~ ~|
 [F,C][F,C][F,C][F,F] [F,F]2 [F,C][C,B,] | [D,A,][D,A,][D,A,][C,B,] [F,C]2 [F,F][F,F] | %7
w: ~ ~ ~ ~ ~ ~ ~|~ ~ ~ ~ ~ ~ ~|
 [F,C]2 [F,A,]>[F,C] [C,B,][C,A,][C,B,][C,C] | A,2 x8 || z2 | [F,C]>[F,C] [F,C][F,C] [F,C]2 z2 | %11
w: ~ ~ ~ ~ ~ ~ ~|~||~ ~ ~ ~ ~|
 [D,A,]>[D,A,] [D,A,][D,A,] [D,A,]2 z2 | [C,G,]>[C,G,] [C,G,][C,A,] [C,B,]2 z2 | %13
w: ~ How I long for|rest with the good and|
 [F,A,]>[F,A,] [F,A,][F,B,] [F,A,]2 z2 | [F,C]>[F,C] [F,C][F,D] [F,C]2 z2 | %15
w: blest, In that home of|rest, with the good and|
 [F,F]>[F,F] [F,F][F,F] [F,F]2 [B,,F][B,,F] | [F,F]2 [F,C]2 [C,B,][C,A,][C,B,][C,C] | %17
w: blest, Oh, it will be sweet, for|we soon shall meet, ~ ~|
 A,2 B,B, A,2 |] %18
w: ~ ~ ~ ~|
V:4
 x2 | x8 | A,2 B,B, A,2 x2 | x6 F,F, | x8 | x8 | x8 | x8 | F,6 B,B, A,2 || x2 | x8 | x8 | x8 | x8 | %14
 x8 | x8 | x8 | F,6 |] %18

